X:1
T: The American
C:
R:Reel
I:speed 232
Q:232
K:G
M:4/4
L:1/8
|:GE|DG BG AG ge|dB Ac BG EG|DG BG AG ge|dB AB G2GE|
DG BG AG ge|dB Ac BG EG|DG BG AG ge|dB AB G2ge|
((3def) gf ge eg|dB cB AG ((3ABc)|df gf ge dg|bg ag abg2|
ga bg eg ce|Bd cA BG AG|EG DG BG AG|dB AB G2:|
